www/assets/icons/screen_rotation_alt.svg

<svg width="24" height="24" viewBox="0 0 24 24" xmlns="http://www.w3.org/2000/svg" fill='currentColor'><path d="M4 7.58988L9 2.58988C9.78 1.80988 11.05 1.80988 11.83 2.58988L20.24 10.9999H17.41L10.4 3.99988L5.41 8.99988H8V10.9999H2V4.99988H4V7.58988ZM20 18.9999H22V12.9999H16V14.9999H18.59L13.6 19.9999L6.59 12.9999H3.76L12.17 21.4099C12.95 22.1899 14.22 22.1899 15 21.4099L20 16.4099V18.9999Z"/></svg>

<svg xmlns="http://www.w3.org/2000/svg" width="24" height="24" viewBox="0 0 24 24" fill='currentColor'><path d="m4 7.59 5-5c.78-.78 2.05-.78 2.83 0L20.24 11h-2.83L10.4 4 5.41 9H8v2H2V5h2zM20 19h2v-6h-6v2h2.59l-4.99 5-7.01-7H3.76l8.41 8.41c.78.78 2.05.78 2.83 0l5-5z"/></svg>
